public/svg/crossplatformIcon.svg

<svg xmlns="http://www.w3.org/2000/svg" width="59" height="56" viewBox="0 0 59 56" fill="none">
<rect width="59" height="56" fill="#C4C4C4" fill-opacity="0.01"/>
<path opacity="0.3" fill-rule="evenodd" clip-rule="evenodd" d="M43.0613 7.72724H23.4178V40.3493H43.0613V7.72724ZM23.4178 5C21.8079 5 20.5029 6.22106 20.5029 7.72724V40.3493C20.5029 41.8555 21.8079 43.0766 23.4178 43.0766H43.0613C44.6711 43.0766 45.9761 41.8555 45.9761 40.3493V7.72724C45.9761 6.22106 44.6711 5 43.0613 5H23.4178Z" fill="#1B5BF7"/>
<path d="M6.32031 17.3781C6.32031 14.3656 8.93034 11.9236 12.15 11.9236H26.3878C29.6074 11.9236 32.2175 14.3656 32.2175 17.3781V44.5457C32.2175 47.558 29.6074 50.0001 26.3878 50.0001H12.15C8.93034 50.0001 6.32031 47.558 6.32031 44.5457V17.3781Z" fill="white" fill-opacity="0.01"/>
<path fill-rule="evenodd" clip-rule="evenodd" d="M26.3878 14.6508H12.15C10.5402 14.6508 9.23514 15.8719 9.23514 17.3781V44.5457C9.23514 46.0518 10.5402 47.2729 12.15 47.2729H26.3878C27.9976 47.2729 29.3027 46.0518 29.3027 44.5457V17.3781C29.3027 15.8719 27.9976 14.6508 26.3878 14.6508ZM12.15 11.9236C8.93034 11.9236 6.32031 14.3656 6.32031 17.3781V44.5457C6.32031 47.558 8.93034 50.0001 12.15 50.0001H26.3878C29.6074 50.0001 32.2175 47.558 32.2175 44.5457V17.3781C32.2175 14.3656 29.6074 11.9236 26.3878 11.9236H12.15Z" fill="#1B5BF7"/>
<path fill-rule="evenodd" clip-rule="evenodd" d="M24.2021 45.3847H14.9531V42.6575H24.2021V45.3847Z" fill="#1B5BF7"/>
<path fill-rule="evenodd" clip-rule="evenodd" d="M26.5404 27.1342C25.2701 28.8878 23.5016 31.3287 19.999 31.3287V28.6015C21.8401 28.6015 22.7955 27.438 24.2402 25.4488C24.2767 25.3985 24.3136 25.3477 24.3509 25.2961C25.6212 23.5426 27.3896 21.1016 30.8923 21.1016C34.3949 21.1016 36.1633 23.5426 37.4336 25.2961C37.471 25.3477 37.5078 25.3985 37.5443 25.4488C38.989 27.438 39.9444 28.6015 41.7855 28.6015C43.6266 28.6015 44.5821 27.438 46.0266 25.4488C46.0632 25.3985 46.1 25.3477 46.1373 25.2961C47.4077 23.5426 49.1761 21.1016 52.6787 21.1016V23.8288C50.8376 23.8288 49.8822 24.9923 48.4376 26.9816C48.4011 27.0318 48.3643 27.0827 48.327 27.1342C47.0565 28.8878 45.2882 31.3287 41.7855 31.3287C38.2829 31.3287 36.5145 28.8878 35.2441 27.1342C35.2068 27.0827 35.1699 27.0318 35.1334 26.9816C33.6888 24.9923 32.7334 23.8288 30.8923 23.8288C29.0511 23.8288 28.0957 24.9923 26.6511 26.9816C26.6146 27.0318 26.5777 27.0827 26.5404 27.1342Z" fill="#1B5BF7"/>
</svg>

<svg xmlns="http://www.w3.org/2000/svg" width="59" height="56" fill="none" xmlns:v="https://vecta.io/nano"><path fill="#c4c4c4" fill-opacity=".01" d="M0 0h59v56H0z"/><path opacity=".3" fill-rule="evenodd" d="M43.061 7.727H23.418v32.622h19.644V7.727zM23.418 5c-1.61 0-2.915 1.221-2.915 2.727v32.622c0 1.506 1.305 2.727 2.915 2.727h19.644c1.61 0 2.915-1.221 2.915-2.727V7.727C45.976 6.221 44.671 5 43.061 5H23.418z" fill="#1b5bf7"/><path d="M6.32 17.378c0-3.012 2.61-5.454 5.83-5.454h14.238c3.22 0 5.83 2.442 5.83 5.454v27.168c0 3.012-2.61 5.454-5.83 5.454H12.15c-3.22 0-5.83-2.442-5.83-5.454V17.378z" fill="#fff" fill-opacity=".01"/><g fill-rule="evenodd" fill="#1b5bf7"><path d="M26.388 14.651H12.15c-1.61 0-2.915 1.221-2.915 2.727v27.168c0 1.506 1.305 2.727 2.915 2.727h14.238c1.61 0 2.915-1.221 2.915-2.727V17.378c0-1.506-1.305-2.727-2.915-2.727zM12.15 11.924c-3.22 0-5.83 2.442-5.83 5.454v27.168C6.32 47.558 8.93 50 12.15 50h14.238c3.22 0 5.83-2.442 5.83-5.454V17.378c0-3.012-2.61-5.454-5.83-5.454H12.15zm12.052 33.461h-9.249v-2.727h9.249v2.727z"/><path d="M26.54 27.134c-1.27 1.754-3.039 4.195-6.541 4.195v-2.727c1.841 0 2.797-1.164 4.241-3.153l.111-.153c1.27-1.753 3.039-4.194 6.541-4.194s5.271 2.441 6.541 4.194l.111.153c1.445 1.989 2.4 3.153 4.241 3.153s2.797-1.164 4.241-3.153l.111-.153c1.27-1.753 3.039-4.194 6.541-4.194v2.727c-1.841 0-2.797 1.163-4.241 3.153l-.111.153c-1.27 1.754-3.039 4.195-6.541 4.195s-5.271-2.441-6.541-4.195l-.111-.153c-1.445-1.989-2.4-3.153-4.241-3.153s-2.797 1.163-4.241 3.153l-.111.153z"/></g></svg>
